src/cmd/sc_outlinemode.svg

<svg viewBox="0 0 16 16" xmlns="http://www.w3.org/2000/svg">/&gt;<path d="m2 2v4h4v-4zm5 0v1h7v-1zm-4 1h2v2h-2zm4 1v1h3v-1zm5 0v1h2v-1zm-10 4v4h4v-4zm5 0v1h3v-1zm5 0-1 1-1 1-2 2v1 1h2l.59375-.59375.40625-.40625 1-1 1-1 1-1zm-9 1h2v2h-2zm8.6875.6875.59375.59375-.28125.28125-1.40625 1.40625v.03125l-1.28125 1.28125-.59375-.59375 1.875-1.90625zm-4.6875.3125v1h1v-1z" fill="#232629"/></svg>

<?xml version="1.0" encoding="UTF-8" standalone="no"?>
<svg
   xmlns:dc="http://purl.org/dc/elements/1.1/"
   xmlns:cc="http://creativecommons.org/ns#"
   xmlns:rdf="http://www.w3.org/1999/02/22-rdf-syntax-ns#"
   xmlns:svg="http://www.w3.org/2000/svg"
   xmlns="http://www.w3.org/2000/svg"
   xmlns:sodipodi="http://sodipodi.sourceforge.net/DTD/sodipodi-0.dtd"
   xmlns:inkscape="http://www.inkscape.org/namespaces/inkscape"
   viewBox="0 0 16 16"
   version="1.1"
   id="svg4"
   sodipodi:docname="sc_outlinemode.svg"
   inkscape:version="0.92.4 (5da689c313, 2019-01-14)"><metadata
   id="metadata10">
  <rdf:RDF>
    <cc:Work
       rdf:about="">
      <dc:format>image/svg+xml</dc:format>
      <dc:type
         rdf:resource="http://purl.org/dc/dcmitype/StillImage" />
    </cc:Work>
  </rdf:RDF>
</metadata>
<defs
   id="defs8" />
<sodipodi:namedview
   pagecolor="#ffffff"
   bordercolor="#666666"
   borderopacity="1"
   objecttolerance="10"
   gridtolerance="10"
   guidetolerance="10"
   inkscape:pageopacity="0"
   inkscape:pageshadow="2"
   inkscape:window-width="1920"
   inkscape:window-height="1011"
   id="namedview6"
   showgrid="true"
   inkscape:zoom="29.5"
   inkscape:cx="9.3356323"
   inkscape:cy="10.697623"
   inkscape:window-x="0"
   inkscape:window-y="32"
   inkscape:window-maximized="1"
   inkscape:current-layer="svg4">
  <inkscape:grid
     type="xygrid"
     id="grid817" />
</sodipodi:namedview>
/&gt;<path
   d="M 2,2 V 6 H 6 V 2 Z m 5,0 v 1 h 7 V 2 Z M 3,3 H 5 V 5 H 3 Z m 4,1 v 1 h 7 V 4 Z M 2,8 v 4 H 6 V 8 Z m 5,0 v 1 h 3 V 8 Z m 5,0 -1,1 -1,1 -2,2 v 1 1 h 2 L 10.59375,13.40625 11,13 l 1,-1 1,-1 1,-1 z M 3,9 h 2 v 2 H 3 Z m 8.6875,0.6875 0.59375,0.59375 L 12,10.5625 10.59375,11.96875 V 12 L 9.3125,13.28125 8.71875,12.6875 l 1.875,-1.90625 z M 7,10 v 1 h 1 v -1 z"
   id="path2"
   inkscape:connector-curvature="0"
   style="fill:#232629"
   sodipodi:nodetypes="cccccccccccccccccccccccccccccccccccccccccccccccccccccccccccccc" />
</svg>
